svgs/sharp-light/chart-line-down.svg

<svg xmlns="http://www.w3.org/2000/svg" viewBox="0 0 512 512"><!--! Font Awesome Pro 6.6.0 by @fontawesome - https://fontawesome.com License - https://fontawesome.com/license (Commercial License) Copyright 2024 Fonticons, Inc. --><path d="M32 48l0-16L0 32 0 48 0 464l0 16 16 0 480 0 16 0 0-32-16 0L32 448 32 48zM336 352l128 0 16 0 0-16 0-128 0-16-32 0 0 16 0 89.4L331.3 180.7 320 169.4l-11.3 11.3L224 265.4 123.3 164.7 112 153.4 89.4 176l11.3 11.3 112 112L224 310.6l11.3-11.3L320 214.6 425.4 320 336 320l-16 0 0 32 16 0z"/></svg>

<svg xmlns="http://www.w3.org/2000/svg" viewBox="0 0 512 512"><!--! Font Awesome Pro 6.4.0 by @fontawesome - https://fontawesome.com License - https://fontawesome.com/license (Commercial License) Copyright 2023 Fonticons, Inc. --><path d="M32 48V32H0V48 464v16H16 496h16V448H496 32V48zM336 352H464h16V336 208 192H448v16 89.4L331.3 180.7 320 169.4l-11.3 11.3L224 265.4 123.3 164.7 112 153.4 89.4 176l11.3 11.3 112 112L224 310.6l11.3-11.3L320 214.6 425.4 320H336 320v32h16z"/></svg>
